X: 60
T:Thip Youllatum
% Nottingham Music Database
S:Chris Dewhurst 1989, via Phil Rowe
M:6/8
K:D
"Em"EFG "A"A2A|"E7"EEF ABc|"Bm"BAG "E7"E2F|"A"A2A A3||
"A"e2e "A"A2c|"Bm"B^G Bde|"E7"
(3e/2f/2g2 e2e2|"A"c3 A3|"D"f3 "e#"efg|"E"agf "A"e3|
"D"fga "a"gec|"Bm"dcB "A"Aec|"Em"Bee "A7"cde|
"D"f2f "e"b2g|"D"faa "A"g3|"G"ded "Em"BcB|"A7"A3 -A2F|"D"A3 -A2:|


